X: 39119
T: Sweet Briar, The
R: jig
M: 6/8
K: Gmajor
gfg e2d|Bdd Bdd|gfg efg|dcB ABd|
gfg e2d|Bdd Bdd|gfg efg|dcB A2D||
GAB Bdd|edc Bdd|GAB Bdd|edB A2D|
GAB Bdd|Bdd Bdd|gfg efg|dcB A3||

